public/img/mongodb.svg

<svg width="86" height="86" viewBox="0 0 86 86" fill="none" xmlns="http://www.w3.org/2000/svg">
<g clip-path="url(#clip0_136_10)">
<path d="M42.7312 0.233887L45.0264 4.54464C45.5424 5.34014 46.1014 6.04426 46.7598 6.70001C48.6814 8.62158 50.5062 10.6345 52.1456 12.7899C56.0344 17.8961 58.6574 23.5668 60.5306 29.6996C61.6539 33.446 62.264 37.2891 62.3097 41.1753C62.4978 52.7933 58.5149 62.7693 50.4847 71.0603C49.1732 72.3718 47.7703 73.5865 46.2653 74.6669C45.4698 74.6669 45.0936 74.0568 44.7657 73.4951C44.1556 72.4658 43.7821 71.2914 43.5939 70.1223C43.3117 68.7168 43.1263 67.3112 43.2177 65.86V65.2042C43.1532 65.0645 42.4517 0.564449 42.7312 0.233887Z" fill="#C5D3E9"/>
<path d="M42.7312 0.0914815C42.6372 -0.0966435 42.5431 0.045794 42.4491 0.137169C42.4947 1.07779 42.1669 1.91629 41.6536 2.71717C41.0892 3.51267 40.3421 4.12273 39.5922 4.77848C35.4266 8.38511 32.1479 12.7415 29.5222 17.614C26.0284 24.1715 24.2278 31.1993 23.7172 38.598C23.4834 41.2667 24.5611 50.6837 25.4022 53.4007C27.6974 60.614 31.82 66.6582 37.1601 71.9042C38.4716 73.1673 39.8744 74.339 41.3257 75.4651C41.7476 75.4651 41.7933 75.0889 41.8901 74.8094C42.075 74.2113 42.2161 73.6005 42.312 72.9819L43.2526 65.9567L42.7312 0.0914815Z" fill="#EEEEEE"/>
<path d="M45.0264 77.5211C45.1204 76.4461 45.6364 75.5538 46.1981 74.6643C45.6337 74.4305 45.2145 73.9655 44.8866 73.4468C44.6044 72.9792 44.3706 72.4175 44.1879 71.9015C43.5321 69.9343 43.3924 67.8703 43.2042 65.86V64.6426C42.9704 64.8307 42.9221 66.4217 42.9221 66.6582C42.7853 68.7829 42.5034 70.8957 42.0782 72.9819C41.9384 73.8258 41.8444 74.667 41.3257 75.4168C41.3257 75.5108 41.3257 75.6049 41.3714 75.7446C42.2152 78.2279 42.4464 80.7568 42.5888 83.3341V84.2748C42.5888 85.3981 42.5431 85.1616 43.4757 85.5379C43.8519 85.6776 44.2712 85.726 44.6474 86.0055C44.9296 86.0055 44.9753 85.7717 44.9753 85.5836L44.8356 84.0383V79.7275C44.7899 78.975 44.9296 78.2279 45.0237 77.5238L45.0264 77.5211Z" fill="#C2BFBF"/>
</g>
<defs>
<clipPath id="clip0_136_10">
<rect width="86" height="86" fill="white"/>
</clipPath>
</defs>
</svg>

<svg xmlns="http://www.w3.org/2000/svg" width="86" height="86" fill="none" xmlns:v="https://vecta.io/nano"><g clip-path="url(#A)"><path d="M42.731.234l2.295 4.311A12.88 12.88 0 0 0 46.76 6.7c1.922 1.922 3.746 3.934 5.386 6.09 3.889 5.106 6.512 10.777 8.385 16.91 1.123 3.746 1.733 7.589 1.779 11.476.188 11.618-3.795 21.594-11.825 29.885-1.311 1.311-2.714 2.526-4.219 3.607-.796 0-1.172-.61-1.5-1.172-.61-1.029-.984-2.204-1.172-3.373-.282-1.405-.468-2.811-.376-4.262v-.656c-.065-.14-.766-64.64-.486-64.97z" fill="#c5d3e9"/><path d="M42.731.091c-.094-.188-.188-.046-.282.046.046.941-.282 1.779-.796 2.58-.564.796-1.311 1.406-2.061 2.061-4.166 3.607-7.444 7.963-10.07 12.836-3.494 6.558-5.294 13.585-5.805 20.984-.234 2.669.844 12.086 1.685 14.803 2.295 7.213 6.418 13.257 11.758 18.504 1.312 1.263 2.714 2.435 4.166 3.561.422 0 .468-.376.564-.656.185-.598.326-1.209.422-1.828l.941-7.025L42.731.091z" fill="#eee"/><path d="M45.026 77.521c.094-1.075.61-1.967 1.172-2.857-.564-.234-.984-.699-1.311-1.218-.282-.468-.516-1.029-.699-1.545-.656-1.967-.795-4.031-.984-6.041v-1.217c-.234.188-.282 1.779-.282 2.016-.137 2.125-.419 4.238-.844 6.324-.14.844-.234 1.685-.753 2.435a.93.93 0 0 0 .046.328c.844 2.483 1.075 5.012 1.217 7.59v.941c0 1.123-.046.887.887 1.263.376.14.795.188 1.172.468.282 0 .328-.234.328-.422l-.14-1.545v-4.311c-.046-.753.094-1.5.188-2.204l.003-.003z" fill="#c2bfbf"/></g><defs><clipPath id="A"><path fill="#fff" d="M0 0h86v86H0z"/></clipPath></defs></svg>
